!!!OTL: 100. Deutsche Helden. 1870/71. / Mel. Vom hoh'n Olymp herab.
!!!COM: H. G. Schnoor
!!!ODT: 1801
!!!ARE: Europa, Mitteleuropa, Deutschland
!!!SCT: B0100
!!!TXL: @@DE
!!!YEM: Copyright 1995, estate of Helmut Schaffrath.
**kern	**text
*ICvox	*
*Ivox	*
!! Mixed meters:  4/4; 3/4
*M4/4	*
*met(c)	*
*clefG2	*
*k[f#]	*
*G:	*
!LO:TX:a:t=Würdig.	!
{8d	Der
8e	Sturm
8f#	brach
=1	=1
4.g	los,
8f#	es
8e	ʒuck-
8d	-ten
8c	rings
8B	die
=2	=2
4e	Bli-
4d	-tʒe,
8r}	.
{8b	jach
8b	gings
8b	in
=3	=3
8bL	Fein-
8aJ	.
8ccL	-des-
8aJ	.
4g	-land
4f#	hi-
=4	=4
2g	-nein,
8r}	.
{8d	vo-
8g	-ran
8b/	der
=5	=5
4.a	jun-
8f#	-ge
8.g	Held,
16f#	ja
8g	"un-
8e	-ſer
=6	=6
8f#L	Frit-
8gJ	.
4a	-ʒe,"
8a}	.
{8a	er
8a	ſoll-
8dd	-te
=7	=7
8cc#L	Tri-
8bJ	.
8gL	-um-
8eJ	.
4d	-pha-
8f#L	-tor
8eJ	.
=8	=8
2d	ſein.
2r}	.
=9	=9
*M3/4	*
{4.b	Preis
8a	ihm
4b	und
=10	=10
4.g	Eh-
8a	-re
4b	im
=11	=11
4.cc	Ju-
8b	-bel-
4cc	-ge-
=12	=12
2a	-ſang.
4r}	.
=13	=13
{4dd	ihm,
4dd	der
4dd	uns
=14	=14
4.dd	herr-
8cc	-lich-
4b	-ſte
=15	=15
4a	Sie-
4g	-ge
4a	er-
=16	=16
2g	-rang!
4r}	.
=17	=17
{4.b	Preis
8a	ihm
4b	und
=18	=18
4.g	Eh-
8a	-re
4b	im
=19	=19
4.cc	Ju-
8b	-bel-
4cc	-ge-
=20	=20
2a	-ſang.
4r}	.
=21	=21
{4dd	ihm,
4dd	der
4dd	uns
=22	=22
4.dd	herr-
8cc	-lich-
4b	-ſte
=23	=23
4a	Sie-
4g	-ge
4a	er-
=24	=24
2g	-rang!
4r}	.
==	==
!!!AGN: Helden -, Ehren -, Gedaechtnis -, Kriegs - Lied
!!!GTL: Helden- und Ehrengedächtnißlieder
!!!ONB: ESAC (Essen Associative Code) Database: BOEHME
!!!AMT: irregular
!!!AIN: vox
!!!EED: Helmut Schaffrath
!!!EEV: 1.0
!!@@COMMENT:"Gedicht von Müller v. d. Werra (1871). Vermuthlich am Jahrestag der Schlacht bei Sedan
!!oder bei der Heimkehr des deutſchen Heeres ʒum feſtl. Empfang gedichtet.
!!*An den drei mit Sternen beʒeichneten Stellen verlangt der Dichter dreimaligen Tuſch
!!vom Orcheſter der Feſwerſammlung ʒu Ehren der Helden."
!!@@END:
!!Text: Müller v. d. Werra
!!!URL-scan: https://archive.org/details/BoehmeVtLieder1895/page/n109/mode/2up
!!!ENC: Anna Maria Matuszewska
!!!EEV: 2024/17/06
*-	*-
